X: 1343
T: Chris Bossy's Waltz
B: australian traditional tunes wiki
M:3/4
L:1/8
R: Waltz
Q: 1/4=100
K:D
V:1 
A2|"D"d4A2|"A7"c4G2 |c2z2B2|E4A2|"A7"c2 (3BcB A2|E2B2A2|"D"F6-|F4G2|
"D"A3F DF|A3BA2|"G"B3G EG|B4A2|"A7"c2 (3BcB A2|E2B2A2|"D"F6-|F2B2c2|
"D"d3c A2|"A7"c4G2|c2z2B2|E4A2|"A7"c2B2A2|E2B2A2|"D"d6-|d4||
% abcbook-tune_id 6342d53aedc37c8142647ec5


% abcbook-boost 0
% abcbook-tablature 
% abcbook-transpose 
% abcbook-lastupdated 1665324360247
% abcbook-soundfonts 
% abcbook-repeats 1
% NFF Book 2007

